src/img/Union2.svg

<svg width="43.403809" height="37.000000" viewBox="0 0 43.4038 37" fill="none" xmlns="http://www.w3.org/2000/svg" xmlns:xlink="http://www.w3.org/1999/xlink">
	<desc>
			Created with Pixso.
	</desc>
	<defs/>
	<path id="Union" d="M9.31592 13.875C9.31592 16.3486 9.97852 18.6714 11.1401 20.6826C10.8105 20.7588 10.4971 20.9224 10.2383 21.1753L0.554688 30.6348C-0.185059 31.3574 -0.185059 32.5283 0.554688 33.251L3.23291 35.8672C3.97266 36.5898 5.17139 36.5898 5.91113 35.8672L15.7905 26.2163C15.9399 26.0703 16.0522 25.9033 16.1284 25.7256C18.2812 27.0098 20.812 27.75 23.519 27.75C31.3633 27.75 37.7227 21.5381 37.7227 13.875C37.7227 6.21191 31.3633 0 23.519 0C15.6748 0 9.31592 6.21191 9.31592 13.875ZM31.9409 23.4736C34.7075 21.1548 36.46 17.7148 36.46 13.875C36.46 6.89307 30.666 1.2334 23.519 1.2334C19.1162 1.2334 15.2271 3.38135 12.8896 6.66309L31.9409 23.4736ZM30.9277 24.2412C28.8291 25.6753 26.2749 26.5166 23.519 26.5166C20.4771 26.5166 17.6802 25.4912 15.4712 23.7749L14.1655 22.6108C14.0815 22.5249 13.9985 22.438 13.917 22.3501L13.1445 21.4326C11.5327 19.3242 10.5786 16.7085 10.5786 13.875C10.5786 11.6431 11.1709 9.5459 12.21 7.72559L30.9277 24.2412ZM14.7773 24.8262L14.6514 24.7139C14.1685 24.3364 13.7109 23.9282 13.2822 23.4932C13.1777 23.3984 13.0801 23.2974 12.9893 23.1895L12.9604 23.1553C12.6763 22.8467 12.4058 22.5254 12.1499 22.1929L12.0649 22.0913C11.8281 21.8101 11.3945 21.7896 11.1309 22.0474L1.44727 31.5068C1.20068 31.7476 1.20068 32.1382 1.44727 32.3789L4.12549 34.9951C4.37207 35.2358 4.77197 35.2358 5.01855 34.9951L14.8979 25.3442C15.0278 25.2173 15.0132 25.0073 14.8662 24.8989L14.876 24.8862C14.8457 24.8633 14.8159 24.8408 14.7856 24.8179L14.7773 24.8262ZM38.0381 37C41.0015 37 43.4038 34.6533 43.4038 31.7583C43.4038 28.8633 41.0015 26.5166 38.0381 26.5166C35.0747 26.5166 32.6724 28.8633 32.6724 31.7583C32.6724 34.6533 35.0747 37 38.0381 37ZM38.0381 35.7666C40.3042 35.7666 42.1411 33.9722 42.1411 31.7583C42.1411 29.5444 40.3042 27.75 38.0381 27.75C35.772 27.75 33.9351 29.5444 33.9351 31.7583C33.9351 33.9722 35.772 35.7666 38.0381 35.7666Z" fill="#3A4D6B" fill-opacity="1.000000" fill-rule="evenodd"/>
</svg>

<svg width="43.404" height="37" fill="none" xmlns="http://www.w3.org/2000/svg"><path d="M9.316 13.875c0 2.474.663 4.796 1.824 6.808-.33.076-.643.24-.902.492l-9.683 9.46a1.82 1.82 0 0 0 0 2.616l2.678 2.616c.74.723 1.938.723 2.678 0l9.88-9.65c.149-.147.261-.314.337-.491a14.387 14.387 0 0 0 7.391 2.024c7.844 0 14.204-6.212 14.204-13.875S31.363 0 23.519 0 9.316 6.212 9.316 13.875Zm22.625 9.599c2.767-2.32 4.519-5.76 4.519-9.599 0-6.982-5.794-12.642-12.941-12.642-4.403 0-8.292 2.148-10.63 5.43l19.052 16.81Zm-1.013.767a13.091 13.091 0 0 1-7.409 2.276 13.077 13.077 0 0 1-8.048-2.742l-1.306-1.164a13.557 13.557 0 0 1-.248-.26l-.772-.918a12.396 12.396 0 0 1-2.566-7.558c0-2.232.592-4.33 1.631-6.15l18.718 16.516Zm-16.15.585-.127-.112c-.482-.378-.94-.786-1.369-1.22a3.134 3.134 0 0 1-.293-.305l-.029-.034c-.284-.308-.554-.63-.81-.962l-.085-.102a.641.641 0 0 0-.934-.044l-9.684 9.46a.607.607 0 0 0 0 .872l2.678 2.616c.247.24.647.24.894 0l9.879-9.65a.291.291 0 0 0-.032-.446l.01-.013-.09-.068-.009.008ZM38.037 37c2.964 0 5.366-2.347 5.366-5.242S41 26.517 38.038 26.517c-2.963 0-5.366 2.346-5.366 5.241 0 2.895 2.403 5.242 5.366 5.242Zm0-1.233c2.266 0 4.103-1.795 4.103-4.009 0-2.214-1.837-4.008-4.103-4.008s-4.103 1.794-4.103 4.008 1.837 4.009 4.103 4.009Z" fill="#3A4D6B" fill-rule="evenodd"/></svg>
